eotimeseriesviewer/ui/icons/speclib_save.svg

<?xml version="1.0" encoding="UTF-8" standalone="no"?>
<svg
   xmlns:dc="http://purl.org/dc/elements/1.1/"
   xmlns:cc="http://creativecommons.org/ns#"
   xmlns:rdf="http://www.w3.org/1999/02/22-rdf-syntax-ns#"
   xmlns:svg="http://www.w3.org/2000/svg"
   xmlns="http://www.w3.org/2000/svg"
   xmlns:sodipodi="http://sodipodi.sourceforge.net/DTD/sodipodi-0.dtd"
   xmlns:inkscape="http://www.inkscape.org/namespaces/inkscape"
   version="1.1"
   id="Capa_1"
   x="0px"
   y="0px"
   viewBox="0 0 65 65"
   xml:space="preserve"
   inkscape:version="0.91 r13725"
   sodipodi:docname="speclib_save.svg"
   width="65"
   height="65"
   inkscape:export-filename="D:\Repositories\QGIS_Plugins\enmap-box\enmapbox\gui\ui\icons\speclib_save.png"
   inkscape:export-xdpi="90"
   inkscape:export-ydpi="90"><metadata
     id="metadata65"><rdf:RDF><cc:Work
         rdf:about=""><dc:format>image/svg+xml</dc:format><dc:type
           rdf:resource="http://purl.org/dc/dcmitype/StillImage" /><dc:title></dc:title></cc:Work></rdf:RDF></metadata><defs
     id="defs63" /><sodipodi:namedview
     pagecolor="#ffffff"
     bordercolor="#666666"
     borderopacity="1"
     objecttolerance="10"
     gridtolerance="10"
     guidetolerance="10"
     inkscape:pageopacity="0"
     inkscape:pageshadow="2"
     inkscape:window-width="1280"
     inkscape:window-height="962"
     id="namedview61"
     showgrid="false"
     inkscape:zoom="12.594506"
     inkscape:cx="48.799907"
     inkscape:cy="27.899812"
     inkscape:window-x="-8"
     inkscape:window-y="-8"
     inkscape:window-maximized="1"
     inkscape:current-layer="g13472" /><g
     id="g5"
     transform="matrix(0.89264024,0,0,0.89620652,-1.1893912,0.96087011)"
     style="fill:#ff3300;fill-opacity:1;stroke:#000000;stroke-opacity:1"><path
       style="fill:#ff3300;fill-opacity:1;stroke:#000000;stroke-opacity:1"
       d="m 26.5,41 c -13.255,0 -24,-3.806 -24,-8.5 l 0,12.5 0.045,0 c 0.731,4.461 11.175,8 23.955,8 12.78,0 23.224,-3.539 23.955,-8 l 0.045,0 0,-12.5 c 0,4.694 -10.745,8.5 -24,8.5 z"
       id="path7"
       inkscape:connector-curvature="0" /><path
       style="fill:#ff3300;fill-opacity:1;stroke:#000000;stroke-opacity:1"
       d="m 2.5,32 0,0.5 C 2.5,32.332 2.518,32.166 2.545,32 L 2.5,32 Z"
       id="path9"
       inkscape:connector-curvature="0" /><path
       style="fill:#ff3300;fill-opacity:1;stroke:#000000;stroke-opacity:1"
       d="m 50.455,32 c 0.027,0.166 0.045,0.332 0.045,0.5 l 0,-0.5 -0.045,0 z"
       id="path11"
       inkscape:connector-curvature="0" /></g><g
     id="g13"
     transform="matrix(0.89264024,0,0,0.89620652,-1.1893912,0.96087011)"
     style="fill:#73d216;stroke:#000000;stroke-opacity:1"><path
       style="fill:#73d216;stroke:#000000;stroke-opacity:1"
       d="m 26.5,29 c -13.255,0 -24,-3.806 -24,-8.5 l 0,12.5 0.045,0 c 0.731,4.461 11.175,8 23.955,8 12.78,0 23.224,-3.539 23.955,-8 l 0.045,0 0,-12.5 c 0,4.694 -10.745,8.5 -24,8.5 z"
       id="path15"
       inkscape:connector-curvature="0" /><path
       style="fill:#73d216;stroke:#000000;stroke-opacity:1"
       d="m 2.5,20 0,0.5 C 2.5,20.332 2.518,20.166 2.545,20 L 2.5,20 Z"
       id="path17"
       inkscape:connector-curvature="0" /><path
       style="fill:#73d216;stroke:#000000;stroke-opacity:1"
       d="m 50.455,20 c 0.027,0.166 0.045,0.332 0.045,0.5 l 0,-0.5 -0.045,0 z"
       id="path19"
       inkscape:connector-curvature="0" /></g><ellipse
     style="fill:#729fcf;stroke:#000000;stroke-width:0.89442158;stroke-opacity:1"
     cx="22.465576"
     cy="8.5786257"
     rx="21.423365"
     ry="7.6177564"
     id="ellipse21" /><g
     id="g23"
     transform="matrix(0.77265321,0,0,0.74162355,-3.2153222,9.0545447)"
     style="fill:#3465a4;fill-opacity:1"><path
       style="fill:#3465a4;fill-opacity:1;stroke:#000000;stroke-width:1.1815666;stroke-opacity:1"
       d="m 33.237288,9.6300025 c -15.313398,0 -27.7270132,-4.599317 -27.7270132,-10.27172821 l 0,15.10548271 0.051988,0 c 0.8445188,5.390844 12.9103902,9.667509 27.6750252,9.667509 14.764635,0 26.830507,-4.276665 27.675025,-9.667509 l 0.05199,0 0,-15.10548271 C 60.964301,5.0306855 48.550686,9.6300025 33.237288,9.6300025 Z"
       id="path25"
       inkscape:connector-curvature="0" /><path
       style="fill:#3465a4;fill-opacity:1"
       d="m 2.5,8 0,0.5 C 2.5,8.332 2.518,8.166 2.545,8 L 2.5,8 Z"
       id="path27"
       inkscape:connector-curvature="0" /><path
       style="fill:#3465a4;fill-opacity:1"
       d="M 50.455,8 C 50.482,8.166 50.5,8.332 50.5,8.5 l 0,-0.5 -0.045,0 z"
       id="path29"
       inkscape:connector-curvature="0" /></g><g
     id="g31"
     transform="translate(0,12)" /><g
     id="g33"
     transform="translate(0,12)" /><g
     id="g35"
     transform="translate(0,12)" /><g
     id="g37"
     transform="translate(0,12)" /><g
     id="g39"
     transform="translate(0,12)" /><g
     id="g41"
     transform="translate(0,12)" /><g
     id="g43"
     transform="translate(0,12)" /><g
     id="g45"
     transform="translate(0,12)" /><g
     id="g47"
     transform="translate(0,12)" /><g
     id="g49"
     transform="translate(0,12)" /><g
     id="g51"
     transform="translate(0,12)" /><g
     id="g53"
     transform="translate(0,12)" /><g
     id="g55"
     transform="translate(0,12)" /><g
     id="g57"
     transform="translate(0,12)" /><g
     id="g59"
     transform="translate(0,12)" /><g
     id="g13472"
     transform="matrix(1.4575169,0,0,1.4742992,-78.565535,105.51821)"><rect
       rx="2.3019736"
       ry="1.7877709"
       style="display:inline;overflow:visible;visibility:visible;fill:#ffffff;fill-opacity:1;fill-rule:evenodd;stroke:none;stroke-width:0.93707752;stroke-linecap:round;stroke-linejoin:round;stroke-miterlimit:4;stroke-dasharray:none;stroke-dashoffset:0;stroke-opacity:1;marker:none;enable-background:accumulate"
       id="rect7391-4"
       width="23.396036"
       height="24.432869"
       x="76.864639"
       y="-50.87402" /><rect
       rx="1.889119"
       ry="1.5"
       style="display:inline;overflow:visible;visibility:visible;fill:#6d97c4;fill-opacity:1;fill-rule:evenodd;stroke:#415a75;stroke-width:0.80000001;stroke-linecap:round;stroke-linejoin:round;stroke-miterlimit:4;stroke-dasharray:none;stroke-dashoffset:0;stroke-opacity:1;marker:none;enable-background:accumulate"
       id="rect7391"
       width="19.200001"
       height="20.5"
       x="78.433258"
       y="-48.956825" /><rect
       style="display:inline;overflow:visible;visibility:visible;fill:#ededed;fill-opacity:1;fill-rule:evenodd;stroke:#666666;stroke-width:0.5;stroke-linecap:round;stroke-linejoin:round;stroke-miterlimit:4;stroke-dasharray:none;stroke-dashoffset:0;stroke-opacity:1;marker:none;enable-background:accumulate"
       id="rect7393"
       width="14"
       height="9"
       x="80.879173"
       y="-48.204494"
       ry="0.5"
       rx="0.5" /><path
       inkscape:connector-curvature="0"
       style="display:inline;fill:none;stroke:#666666;stroke-width:1;stroke-linecap:round;stroke-linejoin:miter;stroke-miterlimit:4;stroke-dasharray:none;stroke-opacity:1;enable-background:new"
       d="m 82.87918,-45.704496 10,0"
       id="path7395"
       sodipodi:nodetypes="cc" /><rect
       style="display:inline;overflow:visible;visibility:visible;fill:#ededed;fill-opacity:1;fill-rule:evenodd;stroke:#666666;stroke-width:0.60000002;stroke-linecap:round;stroke-linejoin:round;stroke-miterlimit:4;stroke-dasharray:none;stroke-dashoffset:0;stroke-opacity:1;marker:none;enable-background:accumulate"
       id="rect7402"
       width="11.98921"
       height="6.98316"
       x="81.889969"
       y="-35.687656" /><rect
       style="display:inline;overflow:visible;visibility:visible;fill:#415a75;fill-opacity:1;fill-rule:evenodd;stroke:#e6e6e6;stroke-width:0.99596691;stroke-linecap:round;stroke-linejoin:round;stroke-miterlimit:4;stroke-dasharray:none;stroke-dashoffset:0;stroke-opacity:1;marker:none;enable-background:accumulate"
       id="rect7404"
       width="3.9928067"
       height="4.9686861"
       x="82.888168"
       y="-34.794193" /><path
       inkscape:connector-curvature="0"
       style="display:inline;fill:none;stroke:#666666;stroke-width:1;stroke-linecap:round;stroke-linejoin:miter;stroke-miterlimit:4;stroke-dasharray:none;stroke-opacity:1;enable-background:new"
       d="m 82.87918,-43.704496 10,0"
       id="path7395-2"
       sodipodi:nodetypes="cc" /><path
       inkscape:connector-curvature="0"
       style="display:inline;fill:none;stroke:#666666;stroke-width:1;stroke-linecap:round;stroke-linejoin:miter;stroke-miterlimit:4;stroke-dasharray:none;stroke-opacity:1;enable-background:new"
       d="m 82.87918,-41.704496 10,0"
       id="path7395-1"
       sodipodi:nodetypes="cc" /></g></svg>

<?xml version="1.0" encoding="UTF-8" standalone="no"?>
<svg
   xmlns:dc="http://purl.org/dc/elements/1.1/"
   xmlns:cc="http://creativecommons.org/ns#"
   xmlns:rdf="http://www.w3.org/1999/02/22-rdf-syntax-ns#"
   xmlns:svg="http://www.w3.org/2000/svg"
   xmlns="http://www.w3.org/2000/svg"
   xmlns:sodipodi="http://sodipodi.sourceforge.net/DTD/sodipodi-0.dtd"
   xmlns:inkscape="http://www.inkscape.org/namespaces/inkscape"
   version="1.1"
   id="Capa_1"
   x="0px"
   y="0px"
   viewBox="0 0 128 128"
   xml:space="preserve"
   inkscape:version="0.92.2 (5c3e80d, 2017-08-06)"
   sodipodi:docname="speclib_save.svg"
   width="128"
   height="128"
   inkscape:export-filename="D:\Repositories\QGIS_Plugins\enmap-box\enmapbox\gui\ui\icons\speclib_save.png"
   inkscape:export-xdpi="90"
   inkscape:export-ydpi="90"><metadata
     id="metadata65"><rdf:RDF><cc:Work
         rdf:about=""><dc:format>image/svg+xml</dc:format><dc:type
           rdf:resource="http://purl.org/dc/dcmitype/StillImage" /><dc:title></dc:title></cc:Work></rdf:RDF></metadata><defs
     id="defs63" /><sodipodi:namedview
     pagecolor="#ffffff"
     bordercolor="#666666"
     borderopacity="1"
     objecttolerance="10"
     gridtolerance="10"
     guidetolerance="10"
     inkscape:pageopacity="0"
     inkscape:pageshadow="2"
     inkscape:window-width="1920"
     inkscape:window-height="1017"
     id="namedview61"
     showgrid="false"
     inkscape:zoom="4.4528303"
     inkscape:cx="-8.5147547"
     inkscape:cy="70.060452"
     inkscape:window-x="3832"
     inkscape:window-y="106"
     inkscape:window-maximized="1"
     inkscape:current-layer="g86" /><g
     id="g56"
     transform="matrix(2.2343879,0,0,2.2343879,1.5845704,-133.66901)"><g
       style="fill:#ff3300;fill-opacity:1;stroke:#000000;stroke-opacity:1"
       transform="matrix(0.89264024,0,0,0.89620652,-1.1893912,61.96087)"
       id="g5"><path
         inkscape:connector-curvature="0"
         id="path7"
         d="M 26.5,41 C 13.245,41 2.5,37.194 2.5,32.5 V 45 h 0.045 c 0.731,4.461 11.175,8 23.955,8 12.78,0 23.224,-3.539 23.955,-8 H 50.5 V 32.5 c 0,4.694 -10.745,8.5 -24,8.5 z"
         style="fill:#ff3300;fill-opacity:1;stroke:#000000;stroke-opacity:1" /><path
         inkscape:connector-curvature="0"
         id="path9"
         d="m 2.5,32 v 0.5 c 0,-0.168 0.018,-0.334 0.045,-0.5 z"
         style="fill:#ff3300;fill-opacity:1;stroke:#000000;stroke-opacity:1" /><path
         inkscape:connector-curvature="0"
         id="path11"
         d="m 50.455,32 c 0.027,0.166 0.045,0.332 0.045,0.5 V 32 Z"
         style="fill:#ff3300;fill-opacity:1;stroke:#000000;stroke-opacity:1" /></g><g
       style="fill:#73d216;stroke:#000000;stroke-opacity:1"
       transform="matrix(0.89264024,0,0,0.89620652,-1.1893912,61.96087)"
       id="g13"><path
         inkscape:connector-curvature="0"
         id="path15"
         d="M 26.5,29 C 13.245,29 2.5,25.194 2.5,20.5 V 33 h 0.045 c 0.731,4.461 11.175,8 23.955,8 12.78,0 23.224,-3.539 23.955,-8 H 50.5 V 20.5 c 0,4.694 -10.745,8.5 -24,8.5 z"
         style="fill:#73d216;stroke:#000000;stroke-opacity:1" /><path
         inkscape:connector-curvature="0"
         id="path17"
         d="m 2.5,20 v 0.5 c 0,-0.168 0.018,-0.334 0.045,-0.5 z"
         style="fill:#73d216;stroke:#000000;stroke-opacity:1" /><path
         inkscape:connector-curvature="0"
         id="path19"
         d="m 50.455,20 c 0.027,0.166 0.045,0.332 0.045,0.5 V 20 Z"
         style="fill:#73d216;stroke:#000000;stroke-opacity:1" /></g><ellipse
       id="ellipse21"
       ry="7.6177564"
       rx="21.423365"
       cy="69.578629"
       cx="22.465576"
       style="fill:#729fcf;stroke:#000000;stroke-width:0.89442158;stroke-opacity:1" /><g
       style="fill:#3465a4;fill-opacity:1"
       transform="matrix(0.77265321,0,0,0.74162355,-3.2153222,70.054545)"
       id="g23"><path
         inkscape:connector-curvature="0"
         id="path25"
         d="m 33.237288,9.6300025 c -15.313398,0 -27.7270132,-4.599317 -27.7270132,-10.27172821 V 14.463757 h 0.051988 c 0.8445188,5.390844 12.9103902,9.667509 27.6750252,9.667509 14.764635,0 26.830507,-4.276665 27.675025,-9.667509 h 0.05199 V -0.64172571 C 60.964301,5.0306855 48.550686,9.6300025 33.237288,9.6300025 Z"
         style="fill:#3465a4;fill-opacity:1;stroke:#000000;stroke-width:1.1815666;stroke-opacity:1" /><path
         inkscape:connector-curvature="0"
         id="path27"
         d="M 2.5,8 V 8.5 C 2.5,8.332 2.518,8.166 2.545,8 Z"
         style="fill:#3465a4;fill-opacity:1" /><path
         inkscape:connector-curvature="0"
         id="path29"
         d="M 50.455,8 C 50.482,8.166 50.5,8.332 50.5,8.5 V 8 Z"
         style="fill:#3465a4;fill-opacity:1" /></g></g><g
     id="g31"
     transform="translate(0,75)" /><g
     id="g33"
     transform="translate(0,75)" /><g
     id="g35"
     transform="translate(0,75)" /><g
     id="g37"
     transform="translate(0,75)" /><g
     id="g39"
     transform="translate(0,75)" /><g
     id="g41"
     transform="translate(0,75)" /><g
     id="g43"
     transform="translate(0,75)" /><g
     id="g45"
     transform="translate(0,75)" /><g
     id="g47"
     transform="translate(0,75)" /><g
     id="g49"
     transform="translate(0,75)" /><g
     id="g51"
     transform="translate(0,75)" /><g
     id="g53"
     transform="translate(0,75)" /><g
     id="g55"
     transform="translate(0,75)" /><g
     id="g57"
     transform="translate(0,75)" /><g
     id="g59"
     transform="translate(0,75)" /><g
     id="g13472"
     transform="matrix(1.4575169,0,0,1.4742992,-78.565535,168.51821)" /><g
     id="g86"
     transform="matrix(0.8809109,0,0,0.8809109,17.504426,19.278928)"><rect
       y="55.236485"
       x="58.427601"
       height="68.041916"
       width="64.178078"
       id="rect7391-4"
       style="display:inline;overflow:visible;visibility:visible;fill:#ffffff;fill-opacity:1;fill-rule:evenodd;stroke:none;stroke-width:2.58999419;stroke-linecap:round;stroke-linejoin:round;stroke-miterlimit:4;stroke-dasharray:none;stroke-dashoffset:0;stroke-opacity:1;marker:none;enable-background:accumulate"
       ry="4.9786768"
       rx="6.3145843" /><rect
       y="61.821079"
       x="64.706245"
       height="58.204666"
       width="53.893101"
       id="rect7391"
       style="display:inline;overflow:visible;visibility:visible;fill:#6d97c4;fill-opacity:1;fill-rule:evenodd;stroke:#415a75;stroke-width:2.25843668;stroke-linecap:round;stroke-linejoin:round;stroke-miterlimit:4;stroke-dasharray:none;stroke-dashoffset:0;stroke-opacity:1;marker:none;enable-background:accumulate"
       ry="4.2588782"
       rx="5.302629" /><rect
       rx="1.4034661"
       ry="1.419626"
       y="63.957138"
       x="71.571762"
       height="25.55327"
       width="39.297054"
       id="rect7393"
       style="display:inline;overflow:visible;visibility:visible;fill:#ededed;fill-opacity:1;fill-rule:evenodd;stroke:#666666;stroke-width:1.41152298;stroke-linecap:round;stroke-linejoin:round;stroke-miterlimit:4;stroke-dasharray:none;stroke-dashoffset:0;stroke-opacity:1;marker:none;enable-background:accumulate" /><path
       sodipodi:nodetypes="cc"
       id="path7395"
       d="M 77.185652,71.055258 H 105.25497"
       style="display:inline;fill:none;stroke:#666666;stroke-width:2.82304597;stroke-linecap:round;stroke-linejoin:miter;stroke-miterlimit:4;stroke-dasharray:none;stroke-opacity:1;enable-background:new"
       inkscape:connector-curvature="0" /><rect
       y="99.49559"
       x="74.409004"
       height="19.826952"
       width="33.652901"
       id="rect7402"
       style="display:inline;overflow:visible;visibility:visible;fill:#ededed;fill-opacity:1;fill-rule:evenodd;stroke:#666666;stroke-width:1.69382763;stroke-linecap:round;stroke-linejoin:round;stroke-miterlimit:4;stroke-dasharray:none;stroke-dashoffset:0;stroke-opacity:1;marker:none;enable-background:accumulate" /><rect
       y="102.03235"
       x="77.210876"
       height="14.107352"
       width="11.207539"
       id="rect7404"
       style="display:inline;overflow:visible;visibility:visible;fill:#415a75;fill-opacity:1;fill-rule:evenodd;stroke:#e6e6e6;stroke-width:2.81166029;stroke-linecap:round;stroke-linejoin:round;stroke-miterlimit:4;stroke-dasharray:none;stroke-dashoffset:0;stroke-opacity:1;marker:none;enable-background:accumulate" /><path
       sodipodi:nodetypes="cc"
       id="path7395-2"
       d="M 77.185652,76.733758 H 105.25497"
       style="display:inline;fill:none;stroke:#666666;stroke-width:2.82304597;stroke-linecap:round;stroke-linejoin:miter;stroke-miterlimit:4;stroke-dasharray:none;stroke-opacity:1;enable-background:new"
       inkscape:connector-curvature="0" /><path
       sodipodi:nodetypes="cc"
       id="path7395-1"
       d="M 77.185652,82.412265 H 105.25497"
       style="display:inline;fill:none;stroke:#666666;stroke-width:2.82304597;stroke-linecap:round;stroke-linejoin:miter;stroke-miterlimit:4;stroke-dasharray:none;stroke-opacity:1;enable-background:new"
       inkscape:connector-curvature="0" /></g></svg>
